assets/post/images/dual1.svg

<svg xmlns="http://www.w3.org/2000/svg" width="1298" height="1031" overflow="hidden"><defs><clipPath id="a"><path d="M125 6h1298v1031H125z"/></clipPath></defs><g clip-path="url(#a)" transform="translate(-125 -6)"><path d="M125.5 959.917h1209.26v9.167l-1209.26-.001Zm1204.67-18.333L1376 964.5l-45.83 22.917Z"/><path d="M778.083 1036.61V93.747h-9.166v942.863Zm18.334-938.28L773.5 52.497 750.584 98.33Z"/><path fill="none" stroke="#000" stroke-dasharray="27.5 9.16667" stroke-miterlimit="8" stroke-width="9.167" d="M125.5 691.5h647.253"/><path fill-rule="evenodd" d="M1316.4 884.511c1.73 0 3.09.581 4.09 1.743q1.5 1.743 1.5 4.701c0 2.134-.42 4.796-1.25 7.984l-1.79 7.011q-.69 2.675-.99 4.174t-.45 2.594c-.09.73-.14 1.338-.14 1.824q0 2.796.93 4.032c.63.824 1.64 1.236 3.04 1.236 1.14 0 2.36-.452 3.67-1.357s2.7-2.27 4.18-4.094q2.205-2.735 3.54-5.309 1.335-2.572 2.19-6.342l3.85-17.548h7.01l-5.92 25.694c-.59 2.594-.89 4.593-.89 5.998 0 1.081.18 1.864.53 2.351s.9.729 1.66.729c.81 0 1.68-.331 2.59-.993q1.38-.993 3.9-3.789l2.31 2.269c-2.46 2.621-4.56 4.472-6.29 5.553s-3.56 1.621-5.51 1.621c-1.67 0-3.01-.554-4.01-1.662q-1.5-1.662-1.5-4.417c0-1.459.32-3.053.97-4.783l-.48-.162c-2.68 3.756-5.21 6.525-7.6 8.308-2.39 1.784-4.85 2.675-7.36 2.675q-3.765 0-5.79-2.168c-1.35-1.446-2.03-3.452-2.03-6.018 0-1.703.39-4.121 1.18-7.255l2.63-10.618c.73-2.945 1.09-5.025 1.09-6.241 0-1.081-.17-1.864-.52-2.351s-.91-.729-1.66-.729c-.84 0-1.73.344-2.66 1.033s-2.21 1.939-3.83 3.749l-2.31-2.27q3.45-3.485 5.19-4.782c1.16-.864 2.27-1.479 3.34-1.844s2.26-.547 3.59-.547"/><text x="1304.28" y="919.582" fill-opacity="0" font-family="Arial,Arial_MSFontService,sans-serif" font-size="40.081">𝑢</text><path fill-rule="evenodd" d="M825.742 99.99h5.592l-2.229 10.011h12.321l-.892 4.093h-12.32l-3.607 15.725q-1.054 4.58-1.338 6.586-.283 2.006-.283 3.222 0 5.025 4.174 5.025 1.783 0 3.789-1.358t4.762-4.64l2.351 2.432q-3.527 4.254-6.789 6.281t-6.828 2.027q-8.47 0-8.471-8.552 0-2.715.689-5.714l4.783-21.034h-6.809l.608-2.796q2.391-.04 3.627-.365 1.236-.324 2.067-.891.831-.568 1.52-1.621.689-1.054 1.337-2.696.649-1.64 1.946-5.734"/><text x="814.637" y="143.218" fill-opacity="0" font-family="Arial,Arial_MSFontService,sans-serif" font-size="49.403">𝑡</text><path fill-rule="evenodd" d="M832.552 686.263q-2.067 0-4.073 1.398-2.006 1.399-4.397 4.479t-3.728 6.079q-1.338 2.999-2.108 6.889l-.324 1.703q-.405 2.147-.507 3.282-.1 1.135-.101 2.229 0 3.162 1.358 4.6 1.357 1.439 4.681 1.439 2.067 0 3.809-.811 1.743-.81 3.303-2.35t2.817-3.729q1.256-2.188 2.249-5.086a37 37 0 0 0 1.5-5.958q.506-3.059.506-5.734 0-4.255-1.195-6.343t-3.79-2.087m-17.062-4.782q2.513 0 3.992 1.662t1.48 4.417q0 2.27-.933 4.782l.487.162q7.497-10.983 14.914-10.983 4.418 0 6.869 3.364 2.452 3.364 2.452 9.484 0 6.686-2.695 13.151t-7.477 10.253-10.699 3.789q-5.39 0-8.957-2.35l-1.864 8.875q-.609 2.878-.608 4.742 0 1.783.912 2.533t3.546.993l-.324 1.986h-12.523l9.767-43q.85-3.728.851-6.119 0-1.622-.527-2.351-.526-.729-1.662-.729-1.256 0-2.654 1.033-1.398 1.034-3.83 3.749l-2.31-2.27q3.648-3.809 6.18-5.491 2.534-1.682 5.613-1.682"/><text x="803.697" y="731.233" fill-opacity="0" font-family="Arial,Arial_MSFontService,sans-serif" font-size="56.86">𝑝</text><path fill-rule="evenodd" d="M863.146 662.027h3.931l-.863 9.323 7.654-5.392 1.937 3.336-8.489 3.962 8.489 3.991-1.937 3.306-7.654-5.391.863 9.323h-3.931l.893-9.323-7.684 5.391-1.966-3.306 8.519-3.991-8.519-3.962 1.966-3.336 7.684 5.392Z"/><text x="854.389" y="681.678" fill-opacity="0" font-family="Arial,Arial_MSFontService,sans-serif" font-size="22.458">∗</text><path fill="#f8ccb9" fill-rule="evenodd" d="M522.816 459.634c23.01-57.726 47.267-112.677 79.009-154.862s70.229-82.796 111.443-98.245 91.853-19.797 135.839 5.55 75.589 64.757 128.076 146.536S1130.12 626.522 1164.03 702.75s26.61 96.581 16.63 113.232c-9.98 16.652-35.66 19.242-76.51-13.321-40.84-32.564-112.551-137.377-168.55-182.06s-115.971-80.576-167.442-86.034-96.473 27.475-141.383 53.286c-44.91 25.81-100.909 91.03-128.077 101.576s-38.95 0-34.93-38.299 36.039-133.77 59.048-191.496"/><path fill="#d74514" fill-rule="evenodd" d="M835.098 443.705q8.592 0 15.4 2.31l-2.472 11.59h-5.309q0-3.526-.75-5.491t-2.289-2.817q-1.54-.85-4.134-.851-5.39 0-9.686 4.965t-7.295 14.59q-3 9.625-2.999 17.325 0 10.254 6.768 10.254 3.241 0 5.349-2.047t3.081-6.343l.567-2.553q.324-1.499.405-2.492t.081-1.804q0-1.66-.77-2.492-.77-.831-2.634-1.074l.567-2.675h19.778l-.568 2.675q-1.58.527-2.35 1.276-.77.75-1.378 2.189t-1.338 4.802l-3.12 13.982-5.593 1.297-2.148-2.877q-5.308 2.877-11.064 2.877-8.51 0-13.07-4.782t-4.559-13.82q0-5.592 1.904-12.786 1.905-7.194 5.897-12.969t10.031-9.017 13.698-3.242"/><text x="803.568" y="493.244" fill-opacity="0" font-family="Arial,Arial_MSFontService,sans-serif" font-size="56.617">𝑮</text></g></svg>

<svg width="1298" height="1031" xmlns="http://www.w3.org/2000/svg" xmlns:xlink="http://www.w3.org/1999/xlink" overflow="hidden"><defs><clipPath id="clip0"><rect x="125" y="6" width="1298" height="1031"/></clipPath></defs><g clip-path="url(#clip0)" transform="translate(-125 -6)"><path d="M125.5 959.917 1334.76 959.917 1334.76 969.084 125.5 969.083ZM1330.17 941.584 1376 964.5 1330.17 987.417Z"/><path d="M4.58333-1.68079e-06 4.58368 942.863-4.58299 942.863-4.58333 1.68079e-06ZM22.917 938.28 0.000360892 984.113-22.9163 938.28Z" transform="matrix(1 0 0 -1 773.5 1036.61)"/><path d="M125.5 691.5 772.753 691.5" stroke="#000000" stroke-width="9.16667" stroke-miterlimit="8" stroke-dasharray="27.5 9.16667" fill="none" fill-rule="evenodd"/><path d="M1316.4 884.511C1318.13 884.511 1319.49 885.092 1320.49 886.254 1321.49 887.416 1321.99 888.983 1321.99 890.955 1321.99 893.089 1321.57 895.751 1320.74 898.939L1318.95 905.95C1318.49 907.733 1318.16 909.125 1317.96 910.124 1317.76 911.124 1317.61 911.989 1317.51 912.718 1317.42 913.448 1317.37 914.056 1317.37 914.542 1317.37 916.406 1317.68 917.75 1318.3 918.574 1318.93 919.398 1319.94 919.81 1321.34 919.81 1322.48 919.81 1323.7 919.358 1325.01 918.453 1326.32 917.548 1327.71 916.183 1329.19 914.359 1330.66 912.536 1331.84 910.766 1332.73 909.05 1333.62 907.335 1334.35 905.221 1334.92 902.708L1338.77 885.16 1345.78 885.16 1339.86 910.854C1339.27 913.448 1338.97 915.447 1338.97 916.852 1338.97 917.933 1339.15 918.716 1339.5 919.203 1339.85 919.689 1340.4 919.932 1341.16 919.932 1341.97 919.932 1342.84 919.601 1343.75 918.939 1344.67 918.277 1345.97 917.014 1347.65 915.15L1349.96 917.419C1347.5 920.04 1345.4 921.891 1343.67 922.972 1341.94 924.052 1340.11 924.593 1338.16 924.593 1336.49 924.593 1335.15 924.039 1334.15 922.931 1333.15 921.823 1332.65 920.351 1332.65 918.514 1332.65 917.055 1332.97 915.461 1333.62 913.731L1333.14 913.569C1330.46 917.325 1327.93 920.094 1325.54 921.877 1323.15 923.661 1320.69 924.552 1318.18 924.552 1315.67 924.552 1313.74 923.829 1312.39 922.384 1311.04 920.938 1310.36 918.932 1310.36 916.366 1310.36 914.663 1310.75 912.245 1311.54 909.111L1314.17 898.493C1314.9 895.548 1315.26 893.468 1315.26 892.252 1315.26 891.171 1315.09 890.388 1314.74 889.901 1314.39 889.415 1313.83 889.172 1313.08 889.172 1312.24 889.172 1311.35 889.516 1310.42 890.205 1309.49 890.894 1308.21 892.144 1306.59 893.954L1304.28 891.684C1306.58 889.361 1308.31 887.767 1309.47 886.902 1310.63 886.038 1311.74 885.423 1312.81 885.058 1313.88 884.693 1315.07 884.511 1316.4 884.511Z" fill-rule="evenodd"/><text fill="#000000" fill-opacity="0" font-family="Arial,Arial_MSFontService,sans-serif" font-size="40.0815" x="1304.28" y="919.582">𝑢</text><path d="M825.742 99.9908 831.334 99.9908 829.105 110.001 841.426 110.001 840.534 114.094 828.214 114.094 824.607 129.819C823.904 132.872 823.458 135.067 823.269 136.405 823.08 137.742 822.986 138.816 822.986 139.627 822.986 142.977 824.377 144.652 827.16 144.652 828.349 144.652 829.612 144.199 830.949 143.294 832.287 142.389 833.874 140.842 835.711 138.654L838.062 141.086C835.711 143.922 833.448 146.016 831.273 147.367 829.099 148.718 826.822 149.394 824.445 149.394 818.798 149.394 815.974 146.543 815.974 140.842 815.974 139.032 816.204 137.127 816.663 135.128L821.446 114.094 814.637 114.094 815.245 111.298C816.839 111.271 818.048 111.149 818.872 110.933 819.696 110.717 820.385 110.42 820.939 110.042 821.493 109.663 822 109.123 822.459 108.421 822.918 107.718 823.364 106.82 823.796 105.725 824.229 104.631 824.877 102.72 825.742 99.9908Z" fill-rule="evenodd"/><text fill="#000000" fill-opacity="0" font-family="Arial,Arial_MSFontService,sans-serif" font-size="49.4028" x="814.637" y="143.218">𝑡</text><path d="M832.552 686.263C831.174 686.263 829.817 686.729 828.479 687.661 827.142 688.594 825.676 690.086 824.082 692.14 822.488 694.193 821.245 696.219 820.354 698.219 819.462 700.218 818.76 702.515 818.246 705.108L817.922 706.811C817.652 708.242 817.483 709.337 817.415 710.093 817.348 710.85 817.314 711.593 817.314 712.322 817.314 714.43 817.767 715.963 818.672 716.922 819.577 717.881 821.137 718.361 823.353 718.361 824.731 718.361 826 718.091 827.162 717.55 828.324 717.01 829.425 716.226 830.465 715.2 831.505 714.173 832.444 712.93 833.282 711.471 834.119 710.012 834.869 708.317 835.531 706.385 836.193 704.453 836.693 702.467 837.031 700.427 837.368 698.388 837.537 696.476 837.537 694.693 837.537 691.856 837.139 689.742 836.342 688.35 835.545 686.959 834.282 686.263 832.552 686.263ZM815.49 681.481C817.165 681.481 818.496 682.035 819.482 683.143 820.468 684.25 820.962 685.723 820.962 687.56 820.962 689.073 820.651 690.667 820.029 692.342L820.516 692.504C825.514 685.182 830.485 681.521 835.43 681.521 838.375 681.521 840.665 682.643 842.299 684.885 843.934 687.128 844.751 690.289 844.751 694.369 844.751 698.827 843.853 703.21 842.056 707.52 840.259 711.829 837.767 715.247 834.579 717.773 831.391 720.299 827.824 721.562 823.88 721.562 820.286 721.562 817.301 720.779 814.923 719.212L813.059 728.087C812.653 730.006 812.451 731.586 812.451 732.829 812.451 734.018 812.755 734.862 813.363 735.362 813.971 735.862 815.153 736.193 816.909 736.355L816.585 738.341 804.062 738.341 813.829 695.341C814.396 692.856 814.68 690.816 814.68 689.222 814.68 688.141 814.504 687.357 814.153 686.871 813.802 686.385 813.248 686.142 812.491 686.142 811.654 686.142 810.769 686.486 809.837 687.175 808.905 687.864 807.628 689.114 806.007 690.924L803.697 688.654C806.129 686.115 808.189 684.284 809.877 683.163 811.566 682.042 813.437 681.481 815.49 681.481Z" fill-rule="evenodd"/><text fill="#000000" fill-opacity="0" font-family="Arial,Arial_MSFontService,sans-serif" font-size="56.8599" x="803.697" y="731.233">𝑝</text><path d="M863.146 662.027 867.077 662.027 866.214 671.35 873.868 665.958 875.805 669.294 867.316 673.256 875.805 677.247 873.868 680.553 866.214 675.162 867.077 684.485 863.146 684.485 864.039 675.162 856.355 680.553 854.389 677.247 862.908 673.256 854.389 669.294 856.355 665.958 864.039 671.35Z" fill-rule="evenodd"/><text fill="#000000" fill-opacity="0" font-family="Arial,Arial_MSFontService,sans-serif" font-size="22.458" x="854.389" y="681.678">∗</text><path d="M522.816 459.634C545.826 401.908 570.083 346.957 601.825 304.772 633.567 262.588 672.054 221.976 713.268 206.527 754.482 191.078 805.121 186.73 849.107 212.077 893.093 237.425 924.696 276.834 977.183 358.613 1029.67 440.392 1130.12 626.522 1164.03 702.75 1197.94 778.978 1190.64 799.331 1180.66 815.982 1170.68 832.634 1145 835.224 1104.15 802.661 1063.31 770.097 991.599 665.284 935.6 620.601 879.601 575.919 819.629 540.025 768.158 534.567 716.687 529.109 671.685 562.042 626.775 587.853 581.865 613.663 525.866 678.883 498.698 689.429 471.53 699.975 459.748 689.429 463.768 651.13 467.788 612.83 499.807 517.36 522.816 459.634Z" fill="#F8CCB9" fill-rule="evenodd"/><path d="M835.098 443.705C840.826 443.705 845.959 444.475 850.498 446.015L848.026 457.605 842.717 457.605C842.717 455.255 842.467 453.424 841.967 452.114 841.468 450.804 840.704 449.865 839.678 449.297 838.651 448.73 837.273 448.446 835.544 448.446 831.95 448.446 828.722 450.101 825.858 453.411 822.994 456.721 820.562 461.584 818.563 468.001 816.563 474.418 815.564 480.193 815.564 485.326 815.564 492.162 817.82 495.58 822.332 495.58 824.493 495.58 826.276 494.897 827.681 493.533 829.086 492.169 830.113 490.054 830.762 487.19L831.329 484.637C831.545 483.638 831.68 482.807 831.734 482.145 831.788 481.483 831.815 480.882 831.815 480.341 831.815 479.234 831.559 478.403 831.045 477.849 830.532 477.295 829.654 476.937 828.411 476.775L828.978 474.1 848.756 474.1 848.188 476.775C847.135 477.126 846.351 477.552 845.838 478.051 845.324 478.551 844.865 479.281 844.46 480.24 844.055 481.199 843.609 482.8 843.122 485.042L840.002 499.024 834.409 500.321 832.261 497.444C828.722 499.362 825.034 500.321 821.197 500.321 815.523 500.321 811.167 498.727 808.127 495.539 805.087 492.351 803.568 487.744 803.568 481.719 803.568 477.991 804.203 473.729 805.472 468.933 806.742 464.137 808.708 459.814 811.369 455.964 814.031 452.114 817.374 449.108 821.4 446.947 825.425 444.785 829.992 443.705 835.098 443.705Z" fill="#D74514" fill-rule="evenodd"/><text fill="#000000" fill-opacity="0" font-family="Arial,Arial_MSFontService,sans-serif" font-size="56.6167" x="803.568" y="493.244">𝑮</text></g></svg>
